img/btn-app-img.svg

<svg width="112" height="28" viewBox="0 0 112 28" fill="none" xmlns="http://www.w3.org/2000/svg">
<path d="M16.7361 13.331C16.7481 12.4129 16.9964 11.5127 17.4578 10.7141C17.9191 9.91559 18.5787 9.24466 19.3749 8.76377C18.8691 8.0541 18.2017 7.47006 17.4259 7.05806C16.6501 6.64605 15.7872 6.41742 14.9056 6.39033C13.0252 6.19645 11.2022 7.49564 10.244 7.49564C9.26725 7.49564 7.79191 6.40958 6.20321 6.44169C5.1756 6.4743 4.17411 6.76784 3.29632 7.2937C2.41854 7.81957 1.69439 8.55982 1.19443 9.44234C-0.971263 13.1256 0.644151 18.5387 2.71871 21.516C3.75665 22.9739 4.96971 24.6024 6.55697 24.5446C8.1102 24.4813 8.69031 23.5717 10.5652 23.5717C12.4227 23.5717 12.9669 24.5446 14.5864 24.5079C16.2531 24.4813 17.3032 23.0435 18.3047 21.5718C19.0505 20.5331 19.6243 19.385 20.005 18.1701C19.0367 17.7678 18.2104 17.0944 17.6291 16.2339C17.0478 15.3734 16.7372 14.3638 16.7361 13.331Z" fill="white"/>
<path d="M13.6746 4.43244C14.5833 3.36082 15.031 1.98342 14.9226 0.592773C13.5342 0.736016 12.2518 1.38783 11.3307 2.41834C10.8804 2.92177 10.5355 3.50745 10.3158 4.14189C10.096 4.77634 10.0057 5.44711 10.05 6.11586C10.7445 6.12288 11.4315 5.97503 12.0593 5.68343C12.6871 5.39184 13.2394 4.9641 13.6746 4.43244Z" fill="white"/>
<path d="M36.3692 20.8539H31.0688L29.7959 24.546H27.5508L32.5713 10.8862H34.9038L39.9244 24.546H37.641L36.3692 20.8539ZM31.6177 19.1502H35.8192L33.748 13.1582H33.69L31.6177 19.1502Z" fill="white"/>
<path d="M50.7669 19.5676C50.7669 22.6624 49.0806 24.6507 46.5359 24.6507C45.8913 24.6839 45.2502 24.538 44.686 24.2298C44.1219 23.9217 43.6575 23.4637 43.346 22.9083H43.2978V27.8411H41.2168V14.5875H43.2312V16.2439H43.2694C43.5952 15.6912 44.0675 15.2356 44.6359 14.9256C45.2044 14.6155 45.8478 14.4627 46.4976 14.4833C49.0707 14.4833 50.7669 16.4813 50.7669 19.5676ZM48.6279 19.5676C48.6279 17.5513 47.5671 16.2257 45.9486 16.2257C44.3586 16.2257 43.2891 17.5792 43.2891 19.5676C43.2891 21.5742 44.3586 22.918 45.9486 22.918C47.5671 22.918 48.6279 21.6021 48.6279 19.5676Z" fill="white"/>
<path d="M61.9251 19.5675C61.9251 22.6624 60.2388 24.6507 57.6941 24.6507C57.0495 24.6838 56.4084 24.538 55.8442 24.2298C55.2801 23.9217 54.8157 23.4637 54.5042 22.9083H54.456V27.8411H52.375V14.5875H54.3893V16.2439H54.4276C54.7534 15.6912 55.2257 15.2356 55.7941 14.9256C56.3626 14.6155 57.0059 14.4627 57.6558 14.4833C60.229 14.4833 61.9251 16.4813 61.9251 19.5675ZM59.7861 19.5675C59.7861 17.5512 58.7253 16.2257 57.1068 16.2257C55.5168 16.2257 54.4473 17.5792 54.4473 19.5675C54.4473 21.5742 55.5168 22.918 57.1068 22.918C58.7253 22.918 59.7861 21.6021 59.7861 19.5675H59.7861Z" fill="white"/>
<path d="M69.3002 20.7403C69.4544 22.0949 70.794 22.9843 72.6246 22.9843C74.3787 22.9843 75.6406 22.0948 75.6406 20.8734C75.6406 19.8132 74.8795 19.1783 73.0773 18.7432L71.2752 18.3168C68.7217 17.7109 67.5363 16.5379 67.5363 14.6344C67.5363 12.2775 69.6272 10.6587 72.5962 10.6587C75.5345 10.6587 77.5489 12.2775 77.6167 14.6344H75.516C75.3902 13.2712 74.2431 12.4483 72.5666 12.4483C70.8902 12.4483 69.7431 13.2809 69.7431 14.4926C69.7431 15.4583 70.4758 16.0266 72.2681 16.4616L73.8002 16.8311C76.6532 17.4939 77.8387 18.6197 77.8387 20.6177C77.8387 23.1733 75.7664 24.7738 72.4704 24.7738C69.3866 24.7738 67.3044 23.2109 67.1699 20.7402L69.3002 20.7403Z" fill="white"/>
<path d="M82.3326 12.23V14.5868H84.2605V16.2057H82.3326V21.696C82.3326 22.5489 82.7186 22.9464 83.5661 22.9464C83.795 22.9424 84.0235 22.9266 84.2507 22.8991V24.5082C83.8696 24.5782 83.4823 24.6098 83.0948 24.6028C81.0422 24.6028 80.2417 23.8454 80.2417 21.914V16.2057H78.7676V14.5868H80.2417V12.23H82.3326Z" fill="white"/>
<path d="M85.373 19.5671C85.373 16.4336 87.2518 14.4646 90.1814 14.4646C93.1209 14.4646 94.9909 16.4336 94.9909 19.5671C94.9909 22.7092 93.1307 24.6696 90.1814 24.6696C87.2331 24.6696 85.373 22.7092 85.373 19.5671ZM92.8705 19.5671C92.8705 17.4176 91.8677 16.149 90.1814 16.149C88.4951 16.149 87.4934 17.4273 87.4934 19.5671C87.4934 21.7252 88.4951 22.9842 90.1814 22.9842C91.8677 22.9842 92.8704 21.7252 92.8704 19.5671H92.8705Z" fill="white"/>
<path d="M96.7031 14.5876H98.6879V16.2827H98.7361C98.8704 15.7533 99.1861 15.2855 99.6302 14.9578C100.074 14.6301 100.62 14.4626 101.175 14.4834C101.415 14.4826 101.654 14.5082 101.888 14.5597V16.4718C101.585 16.3809 101.269 16.3392 100.953 16.3483C100.65 16.3362 100.349 16.3886 100.069 16.5018C99.7894 16.6149 99.5379 16.7862 99.3319 17.0039C99.1259 17.2216 98.9702 17.4805 98.8757 17.7628C98.7812 18.0452 98.7499 18.3443 98.7842 18.6396V24.5467H96.7031L96.7031 14.5876Z" fill="white"/>
<path d="M111.487 21.621C111.207 23.4289 109.415 24.6696 107.122 24.6696C104.172 24.6696 102.342 22.7285 102.342 19.6144C102.342 16.4906 104.182 14.4646 107.034 14.4646C109.839 14.4646 111.603 16.3574 111.603 19.377V20.0774H104.443V20.2009C104.409 20.5674 104.456 20.9367 104.58 21.2841C104.703 21.6315 104.9 21.9492 105.158 22.216C105.416 22.4828 105.729 22.6926 106.076 22.8315C106.423 22.9705 106.796 23.0353 107.17 23.0218C107.662 23.0671 108.155 22.9552 108.577 22.7028C108.999 22.4504 109.326 22.071 109.511 21.621L111.487 21.621ZM104.452 18.6487H109.521C109.54 18.3191 109.489 17.9893 109.372 17.68C109.254 17.3707 109.073 17.0885 108.84 16.8511C108.606 16.6138 108.325 16.4264 108.015 16.3008C107.704 16.1751 107.37 16.114 107.034 16.121C106.695 16.1191 106.359 16.183 106.046 16.3092C105.732 16.4354 105.447 16.6214 105.207 16.8564C104.967 17.0914 104.777 17.3708 104.647 17.6784C104.518 17.986 104.451 18.3158 104.452 18.6487V18.6487Z" fill="white"/>
<path d="M31.3568 0.603883C31.7931 0.573128 32.2309 0.637874 32.6387 0.79345C33.0464 0.949026 33.4139 1.19155 33.7147 1.50354C34.0154 1.81553 34.2419 2.18919 34.3779 2.59759C34.5138 3.00599 34.5558 3.43893 34.5008 3.8652C34.5008 5.96207 33.3471 7.16739 31.3568 7.16739H28.9434V0.603883H31.3568ZM29.9811 6.23917H31.2409C31.5527 6.25747 31.8647 6.20726 32.1542 6.09218C32.4437 5.97711 32.7034 5.80007 32.9145 5.57394C33.1256 5.34782 33.2827 5.07831 33.3743 4.78503C33.466 4.49176 33.49 4.18209 33.4444 3.87857C33.4866 3.57626 33.4603 3.26851 33.3672 2.97738C33.2741 2.68625 33.1167 2.41895 32.9061 2.19463C32.6955 1.9703 32.437 1.79451 32.1491 1.67985C31.8612 1.5652 31.5511 1.5145 31.2409 1.53141H29.9811V6.23917Z" fill="white"/>
<path d="M35.6753 4.68866C35.6436 4.36315 35.6815 4.03473 35.7866 3.72445C35.8917 3.41418 36.0616 3.1289 36.2855 2.88692C36.5094 2.64494 36.7823 2.4516 37.0867 2.3193C37.3912 2.187 37.7204 2.11865 38.0532 2.11865C38.3861 2.11865 38.7153 2.187 39.0198 2.3193C39.3242 2.4516 39.5971 2.64494 39.821 2.88692C40.0449 3.1289 40.2148 3.41418 40.3199 3.72445C40.425 4.03473 40.4629 4.36315 40.4312 4.68866C40.4635 5.0145 40.426 5.34338 40.3212 5.65416C40.2164 5.96493 40.0466 6.25073 39.8226 6.49319C39.5987 6.73564 39.3256 6.92939 39.0208 7.06198C38.7161 7.19457 38.3865 7.26306 38.0532 7.26306C37.72 7.26306 37.3904 7.19457 37.0857 7.06198C36.7809 6.92939 36.5078 6.73564 36.2839 6.49319C36.0599 6.25073 35.8901 5.96493 35.7853 5.65416C35.6805 5.34338 35.643 5.0145 35.6753 4.68866ZM39.4076 4.68866C39.4076 3.61499 38.9166 2.98711 38.0549 2.98711C37.1899 2.98711 36.7033 3.61499 36.7033 4.68867C36.7033 5.77095 37.1899 6.39399 38.0549 6.39399C38.9166 6.39397 39.4076 5.76663 39.4076 4.68866H39.4076Z" fill="white"/>
<path d="M46.7518 7.16756H45.7195L44.6773 3.51952H44.5986L43.5608 7.16756H42.5383L41.1484 2.21436H42.1578L43.0611 5.99394H43.1354L44.1721 2.21436H45.1268L46.1635 5.99394H46.2422L47.1411 2.21436H48.1363L46.7518 7.16756Z" fill="white"/>
<path d="M49.3066 2.2145H50.2646V3.00136H50.339C50.4651 2.71875 50.6779 2.48184 50.9476 2.32366C51.2173 2.16547 51.5306 2.09389 51.8437 2.11889C52.089 2.10077 52.3354 2.13711 52.5645 2.22521C52.7936 2.31332 52.9996 2.45093 53.1672 2.62786C53.3348 2.80479 53.4598 3.01649 53.5328 3.2473C53.6058 3.4781 53.625 3.72208 53.589 3.96116V7.16765H52.5939V4.20664C52.5939 3.41065 52.2418 3.01479 51.5058 3.01479C51.3392 3.00717 51.1729 3.03502 51.0183 3.09643C50.8637 3.15785 50.7245 3.25137 50.6101 3.37059C50.4958 3.48982 50.409 3.63192 50.3558 3.78716C50.3025 3.94241 50.2841 4.10712 50.3018 4.27001V7.16771H49.3066L49.3066 2.2145Z" fill="white"/>
<path d="M55.1738 0.280762H56.169V7.16755H55.1738V0.280762Z" fill="white"/>
<path d="M57.5542 4.68875C57.5225 4.36322 57.5604 4.03478 57.6656 3.72449C57.7707 3.41421 57.9406 3.12892 58.1645 2.88694C58.3885 2.64495 58.6614 2.45161 58.9658 2.3193C59.2703 2.187 59.5995 2.11865 59.9324 2.11865C60.2653 2.11865 60.5945 2.187 60.899 2.3193C61.2034 2.45161 61.4763 2.64495 61.7003 2.88694C61.9242 3.12892 62.0941 3.41421 62.1992 3.72449C62.3044 4.03478 62.3423 4.36322 62.3106 4.68875C62.3429 5.01461 62.3054 5.34349 62.2005 5.65427C62.0957 5.96504 61.9258 6.25083 61.7019 6.49328C61.4779 6.73573 61.2048 6.92947 60.9 7.06205C60.5953 7.19463 60.2657 7.26312 59.9324 7.26312C59.5991 7.26312 59.2695 7.19463 58.9648 7.06205C58.66 6.92947 58.3869 6.73573 58.1629 6.49328C57.939 6.25083 57.7691 5.96504 57.6643 5.65427C57.5594 5.34349 57.5219 5.01461 57.5542 4.68875ZM61.2865 4.68875C61.2865 3.61508 60.7955 2.9872 59.9338 2.9872C59.0688 2.9872 58.5822 3.61508 58.5822 4.68876C58.5822 5.77104 59.0688 6.39408 59.9338 6.39408C60.7955 6.39407 61.2865 5.76673 61.2865 4.68875H61.2865Z" fill="white"/>
<path d="M63.3574 5.76668C63.3574 4.87508 64.0332 4.36107 65.2329 4.28802L66.5987 4.21068V3.78315C66.5987 3.26 66.2466 2.96459 65.5664 2.96459C65.0109 2.96459 64.626 3.16494 64.5155 3.51513H63.5521C63.6538 2.66435 64.4685 2.11865 65.6123 2.11865C66.8765 2.11865 67.5895 2.73685 67.5895 3.78315V7.16746H66.6315V6.47137H66.5528C66.393 6.72106 66.1686 6.92462 65.9025 7.06125C65.6364 7.19788 65.3381 7.26269 65.0382 7.24907C64.8265 7.2707 64.6126 7.24851 64.4102 7.18395C64.2078 7.11938 64.0214 7.01386 63.863 6.87419C63.7046 6.73453 63.5778 6.56381 63.4908 6.37306C63.4037 6.1823 63.3583 5.97574 63.3574 5.76668ZM66.5987 5.34344V4.92933L65.3674 5.00667C64.673 5.05232 64.358 5.28435 64.358 5.72102C64.358 6.16682 64.7517 6.42624 65.2931 6.42624C65.4517 6.44201 65.6119 6.42628 65.7642 6.37998C65.9165 6.33368 66.0577 6.25776 66.1796 6.15674C66.3014 6.05571 66.4013 5.93165 66.4733 5.79193C66.5453 5.65221 66.5879 5.49968 66.5987 5.34344Z" fill="white"/>
<path d="M68.8984 4.68882C68.8984 3.12369 69.7175 2.13219 70.9915 2.13219C71.3066 2.11792 71.6194 2.19207 71.8932 2.34595C72.167 2.49983 72.3906 2.7271 72.5378 3.00118H72.6122V0.280762H73.6073V7.16755H72.6537V6.38498H72.575C72.4164 6.65722 72.185 6.88166 71.9059 7.03399C71.6268 7.18632 71.3106 7.26074 70.9915 7.24918C69.7088 7.24924 68.8984 6.25771 68.8984 4.68882ZM69.9264 4.68882C69.9264 5.73941 70.4306 6.37158 71.2737 6.37158C72.1124 6.37158 72.6308 5.73029 72.6308 4.69312C72.6308 3.6608 72.107 3.01036 71.2737 3.01036C70.436 3.01036 69.9264 3.64683 69.9264 4.68882H69.9264Z" fill="white"/>
<path d="M77.7202 4.68866C77.6885 4.36315 77.7264 4.03473 77.8315 3.72445C77.9366 3.41418 78.1065 3.1289 78.3304 2.88692C78.5543 2.64494 78.8272 2.4516 79.1317 2.3193C79.4361 2.187 79.7653 2.11865 80.0982 2.11865C80.4311 2.11865 80.7603 2.187 81.0647 2.3193C81.3691 2.4516 81.642 2.64494 81.8659 2.88692C82.0898 3.1289 82.2597 3.41418 82.3648 3.72445C82.4699 4.03473 82.5078 4.36315 82.4761 4.68866C82.5084 5.0145 82.471 5.34338 82.3661 5.65416C82.2613 5.96493 82.0915 6.25073 81.8676 6.49319C81.6436 6.73564 81.3705 6.92939 81.0658 7.06198C80.761 7.19457 80.4315 7.26306 80.0982 7.26306C79.7649 7.26306 79.4353 7.19457 79.1306 7.06198C78.8258 6.92939 78.5527 6.73564 78.3288 6.49319C78.1048 6.25073 77.935 5.96493 77.8302 5.65416C77.7254 5.34338 77.6879 5.0145 77.7202 4.68866ZM81.4525 4.68866C81.4525 3.61499 80.9615 2.98711 80.0998 2.98711C79.2348 2.98711 78.7482 3.61499 78.7482 4.68867C78.7482 5.77095 79.2348 6.39399 80.0998 6.39399C80.9615 6.39397 81.4525 5.76663 81.4525 4.68866Z" fill="white"/>
<path d="M83.8145 2.2145H84.7724V3.00136H84.8468C84.9729 2.71875 85.1857 2.48184 85.4554 2.32366C85.7251 2.16547 86.0384 2.09389 86.3515 2.11889C86.5969 2.10077 86.8432 2.13711 87.0723 2.22521C87.3014 2.31332 87.5074 2.45093 87.675 2.62786C87.8427 2.80479 87.9676 3.01649 88.0406 3.2473C88.1136 3.4781 88.1328 3.72208 88.0968 3.96116V7.16765H87.1017V4.20664C87.1017 3.41065 86.7496 3.01479 86.0136 3.01479C85.847 3.00717 85.6807 3.03502 85.5261 3.09643C85.3715 3.15785 85.2323 3.25137 85.1179 3.37059C85.0036 3.48982 84.9168 3.63192 84.8636 3.78716C84.8104 3.94241 84.7919 4.10712 84.8096 4.27001V7.16771H83.8145V2.2145Z" fill="white"/>
<path d="M93.7205 0.981201V2.23696H94.813V3.06035H93.7205V5.60731C93.7205 6.12616 93.9382 6.35335 94.4335 6.35335C94.5604 6.35295 94.6871 6.34542 94.813 6.33079V7.14504C94.6343 7.17645 94.4532 7.19315 94.2717 7.19499C93.165 7.19499 92.7243 6.81257 92.7243 5.85759V3.0603H91.9238V2.23691H92.7243V0.981201H93.7205Z" fill="white"/>
<path d="M96.1699 0.280762H97.1563V3.01035H97.235C97.3673 2.7251 97.5859 2.48685 97.8611 2.32806C98.1362 2.16928 98.4545 2.09769 98.7725 2.12305C99.0166 2.11 99.2606 2.15003 99.4871 2.24027C99.7136 2.33052 99.9171 2.46876 100.083 2.64513C100.249 2.8215 100.373 3.03166 100.447 3.26061C100.52 3.48955 100.542 3.73165 100.509 3.96962V7.16756H99.513V4.21077C99.513 3.41961 99.1378 3.01893 98.4347 3.01893C98.2637 3.00515 98.0916 3.02825 97.9306 3.0866C97.7696 3.14496 97.6236 3.23717 97.5026 3.35678C97.3817 3.4764 97.2888 3.62052 97.2305 3.77907C97.1722 3.93762 97.1499 4.10677 97.1651 4.27468V7.16754H96.17L96.1699 0.280762Z" fill="white"/>
<path d="M106.311 5.83015C106.176 6.28284 105.883 6.67442 105.484 6.93638C105.084 7.19835 104.604 7.31401 104.126 7.26314C103.794 7.27176 103.464 7.20926 103.159 7.07998C102.854 6.95069 102.581 6.75773 102.359 6.51448C102.137 6.27123 101.972 5.98352 101.875 5.67132C101.778 5.35911 101.751 5.0299 101.797 4.70652C101.753 4.38215 101.78 4.05222 101.877 3.73909C101.974 3.42595 102.138 3.1369 102.358 2.89152C102.579 2.64614 102.85 2.45016 103.155 2.31683C103.459 2.1835 103.789 2.11594 104.122 2.11874C105.525 2.11874 106.371 3.06033 106.371 4.61573V4.95683H102.811V5.0116C102.795 5.19337 102.818 5.37634 102.879 5.54876C102.94 5.72119 103.036 5.87927 103.163 6.01287C103.289 6.14647 103.442 6.25264 103.613 6.32458C103.784 6.39651 103.968 6.43263 104.153 6.4306C104.392 6.45867 104.633 6.41657 104.846 6.30964C105.06 6.20271 105.236 6.03579 105.353 5.83011L106.311 5.83015ZM102.811 4.23386H105.357C105.37 4.06762 105.347 3.90064 105.29 3.74366C105.233 3.58667 105.143 3.44314 105.026 3.3223C104.909 3.20145 104.768 3.10597 104.611 3.04197C104.455 2.97798 104.286 2.9469 104.116 2.95072C103.944 2.94859 103.773 2.98034 103.614 3.04408C103.455 3.10781 103.31 3.20226 103.188 3.32184C103.066 3.44143 102.97 3.58373 102.905 3.74037C102.841 3.897 102.808 4.0648 102.811 4.23386H102.811Z" fill="white"/>
</svg>

<svg width="112" height="28" fill="none" xmlns="http://www.w3.org/2000/svg"><path d="M16.736 13.331a5.37 5.37 0 01.722-2.617 5.489 5.489 0 011.917-1.95 5.64 5.64 0 00-1.95-1.706 5.751 5.751 0 00-2.52-.668c-1.88-.194-3.703 1.106-4.661 1.106-.977 0-2.452-1.086-4.04-1.054a6.03 6.03 0 00-2.908.852 5.895 5.895 0 00-2.102 2.148C-.97 13.126.644 18.54 2.72 21.516c1.038 1.458 2.25 3.086 3.838 3.029 1.553-.064 2.133-.973 4.008-.973 1.858 0 2.402.973 4.021.936 1.667-.027 2.717-1.464 3.719-2.936a11.969 11.969 0 001.7-3.402 5.334 5.334 0 01-2.376-1.936 5.194 5.194 0 01-.893-2.903zm-3.061-8.899a5.297 5.297 0 001.248-3.84 5.585 5.585 0 00-3.592 1.826 5.078 5.078 0 00-1.015 1.724 5.015 5.015 0 00-.266 1.974 4.66 4.66 0 002.01-.433 4.58 4.58 0 001.615-1.25zM36.37 20.854h-5.301l-1.273 3.692H27.55l5.02-13.66h2.333l5.02 13.66H37.64l-1.272-3.692zm-4.752-1.704h4.201l-2.071-5.992h-.058l-2.072 5.992zm19.149.418c0 3.094-1.686 5.083-4.231 5.083a3.487 3.487 0 01-1.85-.421 3.407 3.407 0 01-1.34-1.322h-.048v4.933h-2.081V14.587h2.014v1.657h.038a3.567 3.567 0 011.367-1.318 3.648 3.648 0 011.862-.443c2.573 0 4.269 1.998 4.269 5.085zm-2.14 0c0-2.017-1.06-3.342-2.678-3.342-1.59 0-2.66 1.353-2.66 3.342 0 2.006 1.07 3.35 2.66 3.35 1.618 0 2.679-1.316 2.679-3.35zm13.298-.001c0 3.095-1.686 5.084-4.23 5.084a3.487 3.487 0 01-1.85-.421 3.407 3.407 0 01-1.34-1.322h-.049v4.933h-2.081V14.587h2.014v1.657h.039a3.567 3.567 0 011.366-1.318 3.648 3.648 0 011.862-.443c2.573 0 4.27 1.998 4.27 5.084zm-2.139 0c0-2.016-1.06-3.341-2.68-3.341-1.59 0-2.659 1.353-2.659 3.341 0 2.007 1.07 3.351 2.66 3.351 1.618 0 2.68-1.316 2.68-3.35zM69.3 20.74c.154 1.355 1.494 2.244 3.325 2.244 1.754 0 3.016-.89 3.016-2.11 0-1.06-.762-1.696-2.564-2.13l-1.802-.427c-2.553-.606-3.739-1.78-3.739-3.683 0-2.357 2.091-3.975 5.06-3.975 2.938 0 4.953 1.618 5.02 3.975h-2.1c-.126-1.363-1.273-2.186-2.95-2.186-1.676 0-2.823.833-2.823 2.045 0 .965.733 1.534 2.525 1.969l1.532.37c2.853.662 4.039 1.788 4.039 3.786 0 2.555-2.073 4.156-5.369 4.156-3.083 0-5.166-1.563-5.3-4.034h2.13zm13.033-8.51v2.357h1.927v1.619h-1.927v5.49c0 .853.386 1.25 1.233 1.25.229-.004.457-.02.685-.047v1.61c-.381.07-.769.1-1.156.094-2.053 0-2.853-.758-2.853-2.689v-5.708h-1.474v-1.62h1.474V12.23h2.09zm3.04 7.337c0-3.133 1.879-5.102 4.808-5.102 2.94 0 4.81 1.969 4.81 5.102 0 3.142-1.86 5.103-4.81 5.103-2.948 0-4.808-1.96-4.808-5.103zm7.498 0c0-2.15-1.003-3.418-2.69-3.418-1.686 0-2.688 1.278-2.688 3.418 0 2.158 1.002 3.417 2.688 3.417 1.687 0 2.69-1.259 2.69-3.417zm3.832-4.979h1.985v1.695h.048c.134-.53.45-.998.894-1.325.444-.328.99-.495 1.545-.475.24 0 .479.025.713.077v1.912a2.96 2.96 0 00-.935-.124 2.13 2.13 0 00-.884.154c-.28.113-.531.284-.737.502a2.026 2.026 0 00-.548 1.636v5.907h-2.08v-9.96zm14.784 7.033c-.28 1.808-2.072 3.049-4.365 3.049-2.95 0-4.78-1.942-4.78-5.056 0-3.123 1.84-5.15 4.692-5.15 2.805 0 4.569 1.893 4.569 4.913v.7h-7.16v.124a2.58 2.58 0 00.715 2.015c.258.267.571.477.918.616.347.139.72.203 1.094.19.492.045.985-.067 1.407-.32.422-.252.749-.631.934-1.081h1.976zm-7.035-2.972h5.069a2.354 2.354 0 00-.681-1.798 2.452 2.452 0 00-1.806-.73 2.604 2.604 0 00-1.827.735 2.49 2.49 0 00-.755 1.792zM31.357.604c.436-.03.874.034 1.282.19a2.96 2.96 0 011.076.71c.3.312.527.685.663 1.094.136.408.178.84.123 1.267 0 2.097-1.154 3.302-3.144 3.302h-2.414V.604h2.414zM29.98 6.239h1.26c.312.018.624-.032.913-.147.29-.115.55-.292.76-.518a2.027 2.027 0 00.53-1.695 2.034 2.034 0 00-.538-1.684c-.21-.225-.469-.4-.757-.515a2.14 2.14 0 00-.908-.149h-1.26V6.24zm5.695-1.55a2.307 2.307 0 01.61-1.802c.224-.242.497-.435.802-.568a2.426 2.426 0 012.734.568 2.307 2.307 0 01.61 1.802 2.308 2.308 0 01-.608 1.804 2.387 2.387 0 01-.802.569 2.426 2.426 0 01-2.737-.569 2.308 2.308 0 01-.609-1.805zm3.733 0c0-1.074-.491-1.702-1.353-1.702-.865 0-1.352.628-1.352 1.702 0 1.082.487 1.705 1.352 1.705.862 0 1.353-.627 1.353-1.705zm7.344 2.479h-1.033L44.677 3.52H44.6l-1.04 3.648h-1.023l-1.39-4.954h1.01l.903 3.78h.074l1.037-3.78h.955l1.036 3.78h.08l.898-3.78h.995l-1.384 4.954zm2.555-4.953h.958V3h.074c.126-.282.339-.52.609-.677.27-.159.583-.23.896-.205a1.667 1.667 0 011.323.509 1.605 1.605 0 01.422 1.333v3.207h-.995v-2.96c0-.796-.352-1.192-1.088-1.192a1.176 1.176 0 00-.896.356 1.133 1.133 0 00-.308.899v2.898h-.995V2.214zM55.174.28h.995v6.888h-.995V.28zm2.38 4.409a2.306 2.306 0 01.112-.965c.105-.31.275-.595.498-.837a2.39 2.39 0 01.802-.568 2.426 2.426 0 012.734.568 2.306 2.306 0 01.61 1.802 2.33 2.33 0 01-.608 1.805 2.388 2.388 0 01-.802.568 2.426 2.426 0 01-2.737-.569 2.338 2.338 0 01-.499-.839 2.307 2.307 0 01-.11-.965zm3.732 0c0-1.074-.49-1.702-1.352-1.702-.865 0-1.352.628-1.352 1.702 0 1.082.487 1.705 1.352 1.705.861 0 1.352-.627 1.352-1.705zm2.071 1.078c0-.892.676-1.406 1.876-1.479l1.366-.077v-.428c0-.523-.352-.818-1.033-.818-.555 0-.94.2-1.05.55h-.964c.102-.85.917-1.396 2.06-1.396 1.264 0 1.978.618 1.978 1.664v3.384h-.959v-.696h-.078a1.68 1.68 0 01-.65.59 1.722 1.722 0 01-.865.188 1.549 1.549 0 01-1.175-.375 1.496 1.496 0 01-.506-1.107zm3.242-.424V4.93l-1.232.078c-.694.045-1.009.277-1.009.714 0 .446.394.705.935.705a1.209 1.209 0 00.887-.27 1.171 1.171 0 00.419-.813zm2.299-.654c0-1.565.82-2.557 2.094-2.557.315-.014.627.06.901.214s.498.381.645.655h.074V.281h.995v6.887h-.953v-.783h-.079a1.767 1.767 0 01-1.583.864c-1.283 0-2.094-.991-2.094-2.56zm1.028 0c0 1.05.505 1.683 1.348 1.683.838 0 1.357-.642 1.357-1.679 0-1.032-.524-1.683-1.357-1.683-.838 0-1.348.637-1.348 1.679zm7.794 0a2.307 2.307 0 01.61-1.802 2.425 2.425 0 013.535 0 2.307 2.307 0 01.61 1.802c.033.325-.004.654-.109.965-.105.31-.275.597-.498.84a2.389 2.389 0 01-.802.568 2.426 2.426 0 01-2.737-.569 2.308 2.308 0 01-.609-1.805zm3.733 0c0-1.074-.492-1.702-1.353-1.702-.865 0-1.352.628-1.352 1.702 0 1.082.487 1.705 1.352 1.705.862 0 1.353-.627 1.353-1.705zm2.361-2.474h.958V3h.075c.126-.282.339-.52.608-.677.27-.159.583-.23.897-.205a1.667 1.667 0 011.323.509 1.603 1.603 0 01.422 1.333v3.207h-.995v-2.96c0-.796-.352-1.192-1.088-1.192a1.176 1.176 0 00-.896.356 1.133 1.133 0 00-.308.899v2.898h-.996V2.214zM93.72.981v1.256h1.093v.823H93.72v2.547c0 .52.218.746.713.746.127 0 .254-.008.38-.022v.814c-.179.031-.36.048-.541.05-1.107 0-1.548-.382-1.548-1.337V3.06h-.8v-.823h.8V.98h.996zM96.17.28h.986v2.73h.079a1.53 1.53 0 01.626-.682c.275-.159.593-.23.911-.205a1.688 1.688 0 011.311.522 1.607 1.607 0 01.426 1.324v3.199h-.996V4.21c0-.791-.375-1.192-1.078-1.192a1.198 1.198 0 00-.932.338 1.155 1.155 0 00-.338.918v2.893h-.995V.28zm10.141 5.55a2.014 2.014 0 01-.827 1.106c-.4.262-.88.378-1.358.327a2.324 2.324 0 01-1.767-.749 2.234 2.234 0 01-.484-.843 2.204 2.204 0 01-.078-.964 2.247 2.247 0 01.561-1.815 2.36 2.36 0 011.764-.773c1.403 0 2.249.941 2.249 2.497v.34h-3.56v.056a1.303 1.303 0 00.352 1.001 1.355 1.355 0 00.99.418c.239.028.48-.014.693-.121.214-.107.39-.274.507-.48h.958zm-3.5-1.596h2.546a1.169 1.169 0 00-.331-.912 1.216 1.216 0 00-.91-.371 1.307 1.307 0 00-.928.37 1.247 1.247 0 00-.377.912z" fill="#fff"/></svg>
